X:1
T:O Magnum Mysterium
T:O Magnum Mysterium 
%%score [ 1 2 3 4 ]
L:1/8
Q:1/4=80
M:4/4
K:Ab
V:1 treble nm="Soprano" snm="S."
V:2 treble nm="Alto" snm="A."
V:3 treble-8 nm="Tenor" snm="T."
V:4 bass nm="Bass" snm="B."
V:1
 c8 | F4 c4- | c2 c2 d2 d2 | c4 z2 f2 | d2 e2 f3 f | f2 c2 d2 c2- | cBAG ABcA | BA AG/F/ G4- | %8
 G4 F4 | =A8 | B4 =A3 B | c2 d2- dc B2- | B2 =A2 B2 _AG | F2 G2 A4 | z2 f2 d2 e2 | f3 f f2 d2 | %16
 B2 c2 d3 d | d2 c2- cB B2- | B2 =A2 B4 | z8 | z2 d2 c3 =A | B2 c2 d2 B2 | d3 d d2 d2 | c4 c4 | %24
 =A2 c2 c3 c | c2 =d2 e4 | d2- dc/B/ c4 | d4 c4 | z8 | z2 F2 B4 | A2 F2 G2 =A2 | B3 c d2 d2 | %32
 c4 z4 | z8 | z2 B2 e4 | d2 B2 c2 =d2 | e3 d cB B2- | B2 =AG A2 A2 | B4 z4 | =A6 A2 | =A4 B4 | %41
 =A3 B c2 d2- | dc c3 B B2 | c2 =A4 A2 | B3 B B4 | z2 B2- BcdB | c2 f2 e4 | d2 f2 e2 c2 | %48
 d3 c BA AG/F/ | G2 G2 F2 c2- | c2 A4 d2- | dc B4 =A2 |[M:3/4][Q:1/4=150] B4 d2 | c4 =A2 | %54
 B3 A Bc | d2 c4 | d4 B2 | A4 F2 | G3 F GA | B4 =A2 | B6 | z4 e2 | d3 c dB | c2 AB cd | e4 e2 | %65
 d2 f4 |[M:4/4][Q:1/4=90] f8 | z2 f2 fedc | B2 e3 dcB | =A2 B4 A2 | B8- |[Q:1/4=70] B8- | %72
[Q:1/4=50] B8- |[Q:1/4=40] B8 |] %74
V:2
 z8 | z4 F4- | F4 B,4 | F6 F2 | _G2 G2 F4 | z2 F2 D2 E2 | F3 F F2 C2 | D2 F4 =E=D | =E4 F4 | F8 | %10
 F4 F3 G | A2 A,2 B,3 C | D2 C2 B,2 F2 | F2 E2 C3 C | C2 D2- DC B,2- | B,2 =A,2 B,2 B2 | %16
 F2 A2 A3 A | A4 F2 _G2 | F4 F4- | F4 z4 | z2 B2 A3 F | G2 =A2 B2 F2 | F3 F F2 G2 | A4 G4 | %24
 F2 A2 A3 A | A2 A2 B2 c2- | cB B2- B2 =A2 | B2 F2 A3 G/A/ | B2 AG F2 C2 | z4 z2 B,2 | F4 E2 C2 | %31
 =D2 E2 FEFG | A3 G/A/ B2 AG | F4 z2 C2 | F4 E2 C2 | DEFG A4 | B3 A _GF G2 | F6 F2 | D4 z4 | %39
 F6 F2 | F4 F4 | F8- | F8 | F4 z2 F2- | F2 F2 _G3 G | F2 B,C DEFG | A2 A2 A4 | F2 F2 G2 =A2 | %48
 B3 A GF F2- | F2 =E2 F2 A2- | AGFE E4 | D2 E2 F4 |[M:3/4] F4 d2 | A4 F2 | G3 F GA | B4 =A2 | %56
 B4 F2 | F4 C2 | E4 E2 | F2 F4 | F4 D2 | B,4 =A,2 | B,4 B2 | A4 F2 | G3 F GA | B4 =A2 | %66
[M:4/4] B4 z2 F2 | FEDC B,2 B2 | BA_GF E2 G2 | F4 z2 C2 | D3 E F2 _G2- | G2 F2 E3 F | _G4 F4- | %73
 F8 |] %74
V:3
 z8 | z8 | z8 | z8 | z8 | z8 | z8 | z4 c4- | c4 F4 | c6 c2 | d2 d2 c4 | z2 f2 d2 e2 | f3 f f2 c2 | %13
 d2 c2- cBAG | A4 B4 | c4 d2 f2 | d2 e2 f3 f | f2 e2 d2 e2 | c4 B2 d2 | c3 A B2 c2 | d2 B2 f3 f | %21
 e2 c2 B2 d2 | d3 d d2 d2 | e2 f4 =e2 | f2 F2 f3 f | f2 f2 e4 | _g4 f4 | z2 B2 f4 | e2 c2 =d2 e2 | %29
 fedc BcdB | c6 c2 | A4 z2 B2 | f4 e2 c2 | d2 c2- cBAG | A2 B4 =A2 | B2 d2 e2 f2 | _g3 f ed e2 | %37
 d2 cB c2 c2 | B4 z4 | c6 c2 | c4 d4 | c6 B2 | c4 d4 | c2 c4 c2 | =d3 d e2 Bc | de f4 d2 | %46
 e2 d4 c2 | d2 d2 e2 f2 | B6 d2 | c8 | A8 | B4 c4 |[M:3/4] B4 B2 | f4 f2 | e4 e2 | B2 f4 | B4 d2 | %57
 c4 A2 | B3 A Bc | d2 c4 | B4 F2 | G2 E4 | F4 d2 | c4 A2 | B4 B2 | B2 c4 |[M:4/4] B2 d2 cBAG | %67
 F2 Bc defd | e3 f _gfed | c2 B2 c2 f2 | fedc B2 d2 | e2 f2 _g3 f | e6 =dc | =d8 |] %74
V:4
 z8 | z8 | z8 | z8 | z8 | z8 | z8 | z8 | z8 | F,8 | B,,4 F,4- | F,2 F,2 _G,2 G,2 | F,4 z2 F,2 | %13
 D,2 E,2 F,3 F, | F,2 D,2 _G,4 | F,4 B,,2 B,,2 | B,2 A,2 F,3 F, | D,2 A,2 B,2 E,2 | F,4 B,,2 B,2 | %19
 A,3 F, G,2 =A,2 | B,4 z4 | z4 z2 B,,2 | B,3 B, B,2 B,2 | A,3 B, C4 | F,4 z4 | z8 | z4 z2 F,2 | %27
 B,4 A,2 F,2 | G,2 A,2 B,2 A,G, | F,3 A, _G,2 G,2 | F,4 z4 | z2 E,2 B,4 | A,2 F,2 G,2 A,2 | %33
 B,2 A,G, F,3 E, | D,2 C,B,, C,2 C,2 | B,,2 B,2 A,2 F,2 | E,8 | F,6 F,2 | B,,4 z4 | F,6 F,2 | %40
 F,4 B,,4 | F,3 G, =A,2 B,2- | B,=A, A,2 B,4 | F,2 F,4 F,2 | B,3 B, E,4 | B,6 B,2 | A,2 D,2 A,4 | %47
 D,4 z4 | z8 | z4 F,4- | F,4 D,4 | _G,4 F,4 |[M:3/4] B,,4 z2 | z6 | z6 | z6 | z4 B,,2 | F,4 F,2 | %58
 E,4 E,2 | B,,2 F,4 | B,,4 B,,2 | E,2 C,4 | B,,4 B,,2 | F,4 F,2 | E,4 E,2 | _G,2 F,4 | %66
[M:4/4] B,,2 B,2 A,G,F,E, | D,C,B,,A,, B,,4 | E,8 | F,8 | B,,2 B,2 B,A,_G,F, | E,2 =D,2 E,4- | %72
 E,4 B,,4- | B,,8 |] %74

